img/icons/logout.svg

<svg width="20" height="17" viewBox="0 0 20 17" fill="none" xmlns="http://www.w3.org/2000/svg">
<path d="M20 8.5L11.125 0V6H5.125V11H11.125V17L20 8.5Z" fill="#C5C5C5"/>
<path d="M2.10598 13.952V3.048C2.12398 2.672 2.27698 1.991 3.11598 1.991H8.14297V0H3.11598C0.937975 0 0.111975 1.81 0.0869751 3.027V13.973C0.111975 15.189 0.937975 17 3.11598 17H8.14297V15.01H3.11598C2.27698 15.01 2.12398 14.327 2.10598 13.952Z" fill="#C5C5C5"/>
</svg>

<svg width="20" height="17" fill="none" xmlns="http://www.w3.org/2000/svg"><path d="M20 8.5L11.1 0v6h-6v5h6v6L20 8.5z" fill="#C5C5C5"/><path d="M2.1 14V3c0-.3.2-1 1-1h5V0h-5C1 0 .1 1.8.1 3v11c0 1.2.8 3 3 3h5v-2h-5c-.8 0-1-.7-1-1z" fill="#C5C5C5"/></svg>
